X:110
T: Tod der Geschwister
N: Q0107B
O: Suedosteuropa, Jugoslawien, Gottschee, Lichtenbach
N: Kleinere Melodievarianten aus anderer Quelle abgedruckt.
R: Ballade, Tod
M: 3/4
L: 1/8
K: G
G2 | B2G2B2 | d4Ac | e2d2c2 | B4
B2 | d2d2c2 | B4GG | c2B2A2 | G4

@@@ Tune index: 1403
